src/icons/files/gulp.svg

<svg width="24" height="24" viewBox="0 0 24 24" fill="none" xmlns="http://www.w3.org/2000/svg">
<path d="M8.56199 16.042C8.39501 14.3817 8.23501 12.7207 8.08199 11.059C8.08299 11.017 7.85599 10.983 7.57599 10.983H7.06799V9.05H11.034V5.3L12.905 4.175C14.045 3.49 14.883 3.05 15.049 3.05C15.449 3.05 15.915 3.556 15.915 3.99C15.915 4.179 15.858 4.411 15.788 4.507C15.718 4.602 15.066 5.037 14.338 5.472L13.017 6.265L12.989 7.657L12.96 9.05H16.932V10.983H15.952L15.458 15.966L14.963 20.949H9.04699L8.56199 16.042V16.042Z" fill="#F87171"/>
</svg>

<svg viewBox="0 0 24 24" xmlns="http://www.w3.org/2000/svg"><path d="M8.562 16.042a595.106 595.106 0 0 1-.48-4.983c.001-.042-.226-.076-.506-.076h-.508V9.05h3.966V5.3l1.871-1.125c1.14-.685 1.978-1.125 2.144-1.125.4 0 .866.506.866.94 0 .189-.057.421-.127.517-.07.095-.722.53-1.45.965l-1.321.793-.028 1.392-.029 1.393h3.972v1.933h-.98l-.494 4.983-.495 4.983H9.047l-.485-4.907z" fill="#e53935"/></svg>
